modules/feathericon/icons/bug.svg

<?xml version="1.0" encoding="UTF-8"?>
<svg width="14px" height="14px" viewBox="0 0 14 14" version="1.1" xmlns="http://www.w3.org/2000/svg" xmlns:xlink="http://www.w3.org/1999/xlink">
    <!-- Generator: sketchtool 48.1 (47250) - http://www.bohemiancoding.com/sketch -->
    <title>bug</title>
    <desc>Created with sketchtool.</desc>
    <defs></defs>
    <g id="production" stroke="none" stroke-width="1" fill="none" fill-rule="evenodd">
        <g id="bug" fill="#000000">
            <path d="M5,2.27777545 C3,3.24814737 3,5.6 3,5.6 L11,5.6 C11,5.6 11,3.24814737 9,2.27777545 L9,0 L8,0 L8,1.9546037 C7.69807275,1.89788189 7.36575881,1.86666667 7,1.86666667 C6.63424119,1.86666667 6.30192725,1.89788189 6,1.9546037 L6,0 L5,0 L5,2.27777545 L5,2.27777545 Z M11.1528169,12.0554521 C10.5619854,13.1659948 9.33947823,14 6.99999984,14 C4.65859887,14 3.43600579,13.1646234 2.84572755,12.0527136 L0.342020143,12.9032369 L6.21724894e-15,12.0261904 L2.51317296,11.1724516 C2.43910285,10.8759322 2.39539949,10.5712994 2.37499998,10.2666667 L-1.57772181e-30,10.2666667 L-1.57772181e-30,9.33333333 L2.37847693,9.33333333 C2.39626805,9.07191607 2.42655535,8.81702278 2.46447394,8.57424184 L-5.32907052e-15,7.73704636 L0.342020143,6.85999991 L2.65416684,7.64544898 C2.82219908,6.97586008 3,6.53333333 3,6.53333333 L11,6.53333333 C11,6.53333333 11.1772532,6.9744968 11.345056,7.64235405 L13.6587701,6.85637251 L14.0007902,7.73341896 L11.5350273,8.57105233 C11.573179,8.81478999 11.6036539,9.07077104 11.6215229,9.33333333 L14,9.33333333 L14,10.2666667 L11.6249999,10.2666667 C11.604532,10.5723199 11.5606039,10.8779732 11.4860814,11.1754313 L13.9904831,12.0261904 L13.6484629,12.9032369 L11.1528169,12.0554521 L11.1528169,12.0554521 Z" id="Shape"></path>
        </g>
    </g>
</svg>

<svg width="14" height="14" xmlns="http://www.w3.org/2000/svg"><path d="M5 2.278C3 3.248 3 5.6 3 5.6h8s0-2.352-2-3.322V0H8v1.955a5.41 5.41 0 0 0-1-.088 5.41 5.41 0 0 0-1 .088V0H5v2.278zm6.153 9.777C10.562 13.166 9.339 14 7 14c-2.341 0-3.564-.835-4.154-1.947l-2.504.85L0 12.026l2.513-.854a5.166 5.166 0 0 1-.138-.905H0v-.934h2.378c.018-.261.049-.516.086-.759L0 7.737l.342-.877 2.312.785C2.822 6.975 3 6.533 3 6.533h8s.177.441.345 1.11l2.314-.787.342.877-2.466.838c.038.244.069.5.087.762H14v.934h-2.375c-.02.305-.064.611-.139.908l2.504.851-.342.877-2.495-.848z" fill="#000" fill-rule="evenodd"/></svg>
